reader/components/icons/assets/left-arrow.svg

<svg viewBox="0 0 15 24" xmlns="http://www.w3.org/2000/svg">
<path d="M0.386228 11.0671L11.0676 0.386228C11.5826 -0.128743 12.418 -0.128743 12.9329 0.386228L14.1789 1.63216C14.6933 2.14658 14.6938 2.97977 14.1811 3.49529L5.71565 11.9997L14.1805 20.5047C14.6938 21.0202 14.6927 21.8534 14.1783 22.3678L12.9324 23.6138C12.4174 24.1287 11.582 24.1287 11.0671 23.6138L0.386228 12.9324C-0.128743 12.4174 -0.128743 11.582 0.386228 11.0671Z"/>
</svg>

<svg viewBox="0 0 15 24" xmlns="http://www.w3.org/2000/svg"><path d="M.386 11.067L11.068.387a1.32 1.32 0 011.865 0l1.246 1.245a1.32 1.32 0 01.002 1.863L5.716 12l8.465 8.505a1.319 1.319 0 01-.003 1.863l-1.246 1.246a1.32 1.32 0 01-1.865 0L.387 12.932a1.32 1.32 0 010-1.865z"/></svg>
